icon-themes/sifr_svg/cmd/ar/lc_alphaliststyle.svg

<svg viewBox="0 0 24 24" xmlns="http://www.w3.org/2000/svg"><path d="m16 1c-1.1 0-2 .9-2 2v8h2v-2h4v2h2v-8c0-1.1-.9-2-2-2zm-14 2v2h10v-2zm14 0h4v4h-4zm-10 4v2h6v-2zm8 6v10h2 4c1.1 0 2-.89543 2-2v-2c0-1.1-.9-2-2-2v-2c0-1.1-.9-2-2-2h-2zm-12 1v2h10v-2zm14 1h2v2h-2zm-8 3v2h4v-2zm8 1h4v2h-4z" fill="#555753"/></svg>

<svg xmlns="http://www.w3.org/2000/svg" viewBox="0 0 24 24">
  <path
     style="fill:#555753"
     d="M 16 1 C 14.9 1 14 1.9 14 3 L 14 11 L 16 11 L 16 9 L 20 9 L 20 11 L 22 11 L 22 3 C 22 1.9 21.1 1 20 1 L 16 1 z M 2 3 L 2 5 L 12 5 L 12 3 L 2 3 z M 16 3 L 20 3 L 20 7 L 16 7 L 16 3 z M 6 7 L 6 9 L 12 9 L 12 7 L 6 7 z M 14 13 L 14 23 L 16 23 L 20 23 C 21.1 23 22 22.10457 22 21 L 22 19 C 22 17.9 21.1 17 20 17 L 20 15 C 20 13.9 19.1 13 18 13 L 16 13 L 14 13 z M 2 14 L 2 16 L 12 16 L 12 14 L 2 14 z M 16 15 L 18 15 L 18 17 L 16 17 L 16 15 z M 8 18 L 8 20 L 12 20 L 12 18 L 8 18 z M 16 19 L 20 19 L 20 21 L 16 21 L 16 19 z "
     />
</svg>
